X:217
T:Polska efter Thorsjö (SvL Småland 217)
O:Markaryd, Småland
R:Polska
R:Slängpolska
S:Efter Nils Bernhard Ljunggren
S:Efter Hjalmar Thorsjö
B:Svenska Låtar Småland
Z:Till abc Jonas Brunskog
M:3/4
L:1/16
K:Bb
f2ff d2dd c2cc|ABcB A2cc c2c2|f2ff d2dd c2cB|ABcB A2B2 B4:|
|:B2df bfdf bfdB|F2Ac ecAc ecAc|B2df bfdf bfdB|F2Ac ecAc ecAc|
f2ff d2dd c2cB|ABcB A2B2 B4:|

